!!!OTL: ICH SOLL UND MAG NICHT SCHLAFEN GEHN
!!!ARE: Europa, Mitteleuropa, Deutschland, Schlesien
!!!SCT: E0816A
!!!YEM: Copyright 1995, estate of Helmut Schaffrath.
**kern
*ICvox
*Ivox
*M3/4
*k[b-]
*F:
{8cc
=1
8ff
8cc
4a
4b-
=2
8cc
8a
4.f}
{8a
=3
8b-
8g
4e
4f
=4
8g
8e
4c
8r}
{8f
=5
8e
8g
4b-
8a
8g
=6
8f
8a
4.cc}
{8ee
=7
8ff
8dd
4cc
8dd
8b-
=8
8a
8g
4f
8r}
==
!!!AGN: Kilt - Lied
!!!ONB: ESAC (Essen Associative Code) Database: ERK2
!!!AMT: simple triple
!!!AIN: vox
!!!EED: Helmut Schaffrath
!!!EEV: 1.0
*-
